X: 1049
T:Bride's Favorite
S:Crummy, Peter  2001-10-4
R:Jig
M:6/8
K:G
BdB ABc|BdB B2G|BGB dBG|ABA DFA|
B~B2 A~A2|GBd g2g|edc BcA| AGF G3||
dcB gdB|GBd g2g|cAc fcA|GBd g2g|
BAG AGF|GBd g2g|edc BcA|AGF G3||
dcB gdB|GBd g2g|cAc fcA|GBd g2g|
BAG AGF|GBd g2g|edc BcA|AGF G3:|
